X: 1663
T: Clark's Hornpipe
M:2/4
L:1/16
B:O'Neill's 1663
K:D
(3ABc \
| d2AGFDFA | BGBd cAce | fdge afed | c2e2 egfe |
| d2AGFDFA | BGBd cAce | dbag fgec | d2f2d2 :|
|: (3efg \
| a2fd Adfa | g2ecAcdg | fafd Bged | cedB Agfe |
| d2AG FDFA | BGBd cAce | dbag fgec | d2f2d2 :|


